app/static/images/calendar/important-date__home-anniversary.svg

<?xml version="1.0" encoding="UTF-8"?>
<svg width="15px" height="16px" viewBox="0 0 15 16" version="1.1" xmlns="http://www.w3.org/2000/svg" xmlns:xlink="http://www.w3.org/1999/xlink">
    <!-- Generator: Sketch 51.3 (57544) - http://www.bohemiancoding.com/sketch -->
    <title>Group 2</title>
    <desc>Created with Sketch.</desc>
    <defs></defs>
    <g id="Page-1" stroke="none" stroke-width="1" fill="none" fill-rule="evenodd">
        <g id="Group-2" transform="translate(-5.000000, -4.000000)" fill-rule="nonzero">
            <rect id="Rectangle" fill-opacity="0" fill="#D8D8D8" x="0" y="0" width="24" height="24"></rect>
            <g id="noun_Home_986899_000000" transform="translate(5.000000, 4.000000)" fill="#F5A623">
                <path d="M14.7552551,5.31733333 L7.87622449,0.125333333 C7.6547449,-0.0417777778 7.3444898,-0.0417777778 7.12316327,0.125333333 L0.244744898,5.31733333 C0.0959693878,5.42962963 0.00903061224,5.60207407 0.00903061224,5.78459259 L0.00903061224,15.4074074 C0.00903061224,15.7346667 0.283163265,16 0.62127551,16 L14.3788776,16 C14.7169898,16 14.9911224,15.7346667 14.9911224,15.4074074 L14.9911224,5.78459259 C14.9909694,5.60192593 14.9040306,5.42948148 14.7552551,5.31733333 Z M13.7664796,14.8148148 L1.23352041,14.8148148 L1.23352041,6.07392593 L7.49969388,1.344 L13.7664796,6.07392593 L13.7664796,14.8148148 Z M7.21882653,7.35185185 L7.5,7.64177778 L7.78117347,7.352 C8.11209184,7.01111111 8.57892857,6.8157037 9.06214286,6.8157037 C9.51045918,6.8157037 9.9375,6.97925926 10.2644388,7.27644444 C10.6065306,7.58785185 10.8029082,8.00918519 10.817449,8.46311111 C10.8319898,8.91718519 10.6628571,9.34948148 10.3414286,9.68044444 L7.66071429,12.2674074 C7.61602041,12.3106667 7.55739796,12.3322963 7.49862245,12.3322963 C7.43984694,12.3322963 7.38122449,12.3106667 7.33637755,12.2674074 L4.66316327,9.68548148 C3.99489796,8.99688889 4.02964286,7.91851852 4.73540816,7.27659259 C5.06234694,6.97940741 5.48938776,6.8157037 5.93770408,6.8157037 C6.42091837,6.8157037 6.88790816,7.01111111 7.21882653,7.35185185 Z" id="Shape"></path>
            </g>
        </g>
    </g>
</svg>

<svg width="15" height="16" xmlns="http://www.w3.org/2000/svg">
  <g fill-rule="nonzero" fill="none">
    <path fill="none" d="M-5-4h24v24H-5z"/>
    <path d="M14.755 5.317L7.876.125a.628.628 0 0 0-.753 0L.245 5.317a.586.586 0 0 0-.236.468v9.622c0 .328.274.593.612.593H14.38a.603.603 0 0 0 .612-.593V5.785a.586.586 0 0 0-.236-.468zm-.989 9.498H1.234V6.074L7.5 1.344l6.266 4.73v8.74zM7.22 7.352l.281.29.281-.29c.331-.34.798-.536 1.281-.536.448 0 .876.163 1.202.46a1.659 1.659 0 0 1 .077 2.404l-2.68 2.587a.232.232 0 0 1-.162.065.233.233 0 0 1-.163-.065L4.663 9.685a1.666 1.666 0 0 1 .072-2.408c.327-.298.754-.461 1.203-.461.483 0 .95.195 1.28.536z" fill="#F5A623"/>
  </g>
</svg>
